X:7871
T:Skogsblommor
C:anon.
O:Finland
R:Vals
Z:Transcribed by Frank Nordberg - http://www.musicaviva.com
F:http://abc.musicaviva.com/tunes/finland/skogsblommor.abc
M:3/4
L:1/4
K:Gm
"Gm"DGA|"Gm"BAG|"Gm"d3-|"Gm"d3|\
"Gm"DGA|"Gm"BAG|"Cm"e3-|"Cm"e3|
"Cm"cde|"Cm"edc|"Gm"d3-|"Gm"d3|\
"D7"D^FA|"D7"cBA|"Gm"GB/G/d/B/|"Gm"gg3/2f/||
"F7"f3-|"F7"fg3/e/|"Bb"d3-|de3/d/|\
"D7"c3-|cd3/c/|"Gm"B3-|"Gm"Bdd|
"Gm"d3-|"Gm"dcB|"D7"A3-|"D7"ABA|\
"D7"D^CD|"D7"B2A|"Gm"G (3B/G/B/ (3d/B/d/|"Gm"g z g/^f/||
"Gm"gzd/^c/|"Gm"dzB/A/|"Gm"BzG/^F/|"Gm"Gzd|\
"Cm"e2d|"Cm"cef|"Gm"d3-|"Gm"d3|
"D7"D^F3/G/|"D7"A3|"Gm"DG3/A/|"Gm"B3|\
"D7"D^FA|"D7"B2A|"Gm"G (3B/G/B/ (3d/B/d/|"Gm"gzz|]
W:
W:
W:  From Musica Viva - http://www.musicaviva.com
W:  the Internet center for free sheet music downloads.

